X:4
P:The Hunt of the Gnomes
C:Anselm Lingnau
M:6/8
K:Bb
F|:"Bb"B2 F dcB|"F"Acf agf|"Bb"b2 f def|"Cm"ecB "F7"A2 F|"Eb"G2 B BAG|
 "Bb"FAB DEF|1"Cm"E2 c c2 B|"F"AcA "F7"FGA :|2"Cm"E2 g "F7"feA|"Bb"B3 B2||
f|"Eb"g2 e gfe|"Bb/D"dfd "Bb7"B2 f|"Cm"e2 d "C7/E"c2 B|"F"AcA F2 f|"Eb"g2 e gfe|
 "Bb"f2 d B2 A|"Eb"G2 g "F7"feA|"Bb"B3 Bdf|"Eb"g2 e gfe|"Bb"dfd "Bb7"B2 f|"Cm"e2 d "C7/E"c2 B|
 "F"AcA F2 F|"Eb"G2 B "F"cAF|"Bb"Bdf bfd|"Cm"e2 g "F7"feA|"Bb"B3 B2|]
